public/images/icons/32x32/francais_32_white.svg

<svg height="32" viewBox="0 0 32 32" width="32" xmlns="http://www.w3.org/2000/svg"><g fill="#fff" transform="translate(4 6)"><path d="m.87906977 17.872093h5.77209302c.98684466.002059 1.92592974.4250703 2.58139535 1.1627907l.08139535.0860465c.10522711.1086539.21874793.2089565.33953488.3.04883721.0348838.09534884.0697675.13953489.0976745.10660605.0707005.21769274.1344006.33255814.1906976l.0581395.027907c.0604651.0302326.1232558.055814.1860465.0790698.0799781.02989.1614884.0555076.2441861.0767442.0558139.016279.1302325.0372093.2186046.0534883.1258649.0249849.2532961.0413023.3813954.0488372l.1813953.0046512c.1921529-.0003786.3837925-.0198542.5720931-.0581395.0744186-.0139535.1372093-.0302326.1697674-.0418605.0961963-.0239699.1909277-.0534764.2837209-.0883721h.027907l.1465116-.0627907.0418605-.0209302h.0139535c.1240607-.0596783.2437398-.1280663.3581395-.2046512l.1209303-.0837209c.1287811-.1036792.2485858-.2180382.3581395-.3418605l.027907-.027907.0488372-.0534883c.6484512-.731302 1.5807653-1.1474531 2.5581395-1.1418605h5.7883721c.2335473.0000008.4574953-.0929344.6224199-.2582952.1649245-.1653609.2572677-.3895537.256653-.6231001v-13.80000004c-.0063654-.48094979-.398081-.86748395-.8790729-.86744186h-1.7348837v-1.73953489c.00124-.15499993-.0594661-.30407781-.1686336-.41411862-.1091674-.11004081-.2577569-.17192789-.4127618-.17192789h-3.6186046c-1.7003148.00326829-3.3366485.64866488-4.5813954 1.80697674-1.2447468-1.15831186-2.88108051-1.80370845-4.58139531-1.80697674h-3.61860465c-.32109579 0-.58139535.26029956-.58139535.58139535v1.74418605h-1.73488372c-.48099186-.00004209-.87270745.38649207-.87906977.86744186v13.80000004c0 .2331438.09261601.4567386.25747357.6215961.16485756.1648576.3884524.2574736.6215962.2574736zm15.09767443-16.7093023h3.0372093v12.9209302h-3.0372093c-1.4403289.000949-2.8423619.463946-4 1.3209303v-12.53720934c1.0470048-1.08713191 2.4906725-1.70236936 4-1.70465116zm-12.20000001 0h3.0372093c1.5086421.00106371 2.9522094.61457981 4.00000001 1.7v12.5418605c-1.15763815-.8569843-2.55967115-1.3199813-4.00000001-1.3209303h-3.0372093zm-2.61395349 2.32558139h1.45116279v11.18604651c0 .3210958.26029956.5813954.58139535.5813954h3.61860465c1.58395242.001802 3.09208814.6784754 4.14651161 1.8604651.1103067.1235667.2680819.1942174.4337209.1942174.1656391 0 .3234143-.0706507.433721-.1942174 1.0544235-1.1819897 2.5625592-1.8586631 4.1465116-1.8604651h3.6209302c.3210958 0 .5813954-.2602996.5813954-.5813954v-11.18604651h1.4511628v13.23255811h-5.4883721c-1.3165869-.0086097-2.5725196.5527863-3.4441861 1.5395349l-.0186046.0209302-.0209302.0209303c-.0718016.0716347-.1496052.1369896-.2325582.1953488l-.0697674.0488372c-.0669143.045058-.1368466.0854633-.2093024.1209303h-.0139534l-.0348838.016279-.0930232.0395349c-.0570717.0211419-.1153064.0390005-.1744186.0534884l-.1.0232558c-.1093948.02309-.2207654.0355511-.3325582.0372093h-.1023255c-.0781194-.0047488-.1558212-.0148501-.2325582-.0302326-.0488372 0-.0883721-.0209302-.1348837-.0348837-.0488382-.0120652-.0969734-.0268163-.1441861-.044186l-.1023255-.0441861-.0441861-.0209302c-.0707059-.0342056-.1390722-.07305-.2046511-.1162791l-.0813954-.0558139c-.074517-.0564568-.1444984-.1186625-.2093023-.1860465l-.0441861-.0465117c-.87543223-.9827602-2.12805847-1.5460614-3.44418601-1.5488372h-5.48837209z"/><path d="m5.42093023 4.11395349h.96511628c.85022483.00155649 1.68876978.1980656 2.45116279.5744186.28493633.12574452.61835194.00462017.75613778-.27469231.13778584-.27931247.03099575-.61759188-.24218429-.76716815-.9248251-.4576526-1.94255347-.69636918-2.9744186-.69767442h-.95581396c-.32109578 0-.58139535.26029956-.58139535.58139535 0 .32109578.26029957.58139535.58139535.58139535zm0 2.57209302h.96511628c.85022483.00155649 1.68876978.1980656 2.45116279.57441861.28493633.12574452.61835194.00462016.75613778-.27469232.13778584-.27931247.03099575-.61759187-.24218429-.76716815-.9248251-.4576526-1.94255347-.69636918-2.9744186-.69767442h-.95581396c-.32109578 0-.58139535.26029957-.58139535.58139535 0 .32109579.26029957.58139535.58139535.58139535zm0 2.57209302h.96511628c.85022483.00155649 1.68876978.1980656 2.45116279.57441861.28493633.12574452.61835194.00462016.75613778-.27469231.13778584-.27931248.03099575-.61759188-.24218429-.76716816-.9248251-.45765259-1.94255347-.69636918-2.9744186-.69767441h-.95581396c-.32109578 0-.58139535.26029956-.58139535.58139534 0 .32109579.26029957.58139535.58139535.58139535zm3.41627907 3.14883717c.1873834.1025995.41594098.094168.59525562-.0219588s.28049793-.3212404.26352186-.5341982c-.01697606-.2129577-.14937656-.399451-.34482399-.4857034-.92479676-.4577315-1.94254378-.6964524-2.9744186-.6976744h-.95581396c-.32109578 0-.58139535.2602995-.58139535.5813953s.26029957.5813954.58139535.5813954h.96511628c.85040753.0022797 1.6889618.1995866 2.45116279.5767441zm4.8162791-7.65813949c.0887789-.00027865.1763051-.02096665.2558139-.06046512.7659718-.37793024 1.6086572-.57447725 2.4627907-.5744186h.9651163c.3210958 0 .5813954-.26029957.5813954-.58139535 0-.32109579-.2602996-.58140778-.5813954-.58140778h-.9651163c-.7934478-.00151595-1.5808638.13785669-2.3255814.41164034-.2250097.08284693-.4454735.17755323-.6604651.28372093-.241934.11990154-.3694758.39059028-.3079099.65349347s.2960338.44883211.5660494.44883211zm0 2.57209302c.0887789-.00027865.1763051-.02096665.2558139-.06046511.7659718-.37793024 1.6086572-.57447725 2.4627907-.57441861h.9651163c.3210958 0 .5813954-.26029956.5813954-.58139535 0-.32109578-.2602996-.58140778-.5813954-.58140778h-.9651163c-.7934478-.00151595-1.5808638.13785669-2.3255814.41164034-.2250097.08284693-.4454735.17755323-.6604651.28372093-.241934.11990154-.3694758.39059028-.3079099.65349347s.2960338.44883211.5660494.44883211zm0 2.57209303c.0887789-.00027865.1763051-.02096666.2558139-.06046512.7659718-.37793024 1.6086572-.57447725 2.4627907-.57441861h.9651163c.3210958 0 .5813954-.26029956.5813954-.58139534 0-.32109579-.2602996-.58140779-.5813954-.58140779h-.9651163c-.7934478-.00151594-1.5808638.13785669-2.3255814.41164034-.2250097.08284694-.4454735.17755323-.6604651.28372093-.241934.11990155-.3694758.39059029-.3079099.65349348s.2960338.44883211.5660494.44883211zm0 2.57209304c.0887789-.0002787.1763051-.0209667.2558139-.0604651.7661925-.3770471 1.6088499-.5727919 2.4627907-.5720931h.9651163c.3210958 0 .5813954-.2602995.5813954-.5813953s-.2602996-.5814094-.5813954-.5814094h-.9651163c-.7934563-.001613-1.5808896.1377627-2.3255814.4116419-.2250097.082847-.4454735.1775533-.6604651.283721-.241934.1199015-.3694758.3905903-.3079099.6534935.0615659.2629031.2960338.4488321.5660494.4488321z"/></g></svg>

<?xml version="1.0" encoding="UTF-8"?>
<svg width="32px" height="32px" viewBox="0 0 32 32" version="1.1" xmlns="http://www.w3.org/2000/svg" xmlns:xlink="http://www.w3.org/1999/xlink">
    <title>icone/32x32/lecture_32_white</title>
    <g id="icone/32x32/lecture_32_white" stroke="none" stroke-width="1" fill="none" fill-rule="evenodd">
        <g id="noun_Book_1195058" transform="translate(4.500000, 6.000000)" fill="#FFFFFF" fill-rule="nonzero">
            <path d="M0.879069767,17.872093 L6.65116279,17.872093 C7.63800745,17.874152 8.57709253,18.2971633 9.23255814,19.0348837 L9.31395349,19.1209302 C9.4191806,19.2295841 9.53270142,19.3298867 9.65348837,19.4209302 C9.70232558,19.455814 9.74883721,19.4906977 9.79302326,19.5186047 C9.89962931,19.5893052 10.010716,19.6530053 10.1255814,19.7093023 L10.1837209,19.7372093 C10.244186,19.7674419 10.3069767,19.7930233 10.3697674,19.8162791 C10.4497455,19.8461691 10.5312558,19.8717867 10.6139535,19.8930233 C10.6697674,19.9093023 10.744186,19.9302326 10.8325581,19.9465116 C10.958423,19.9714965 11.0858542,19.9878139 11.2139535,19.9953488 L11.3953488,20 C11.5875017,19.9996214 11.7791413,19.9801458 11.9674419,19.9418605 C12.0418605,19.927907 12.1046512,19.9116279 12.1372093,19.9 C12.2334056,19.8760301 12.328137,19.8465236 12.4209302,19.8116279 L12.4488372,19.8116279 L12.5953488,19.7488372 L12.6372093,19.727907 L12.6511628,19.727907 C12.7752235,19.6682287 12.8949026,19.5998407 13.0093023,19.5232558 L13.1302326,19.4395349 C13.2590137,19.3358557 13.3788184,19.2214967 13.4883721,19.0976744 L13.5162791,19.0697674 L13.5651163,19.0162791 C14.2135675,18.2849771 15.1458816,17.868826 16.1232558,17.8744186 L21.9116279,17.8744186 C22.1451752,17.8744194 22.3691232,17.7814842 22.5340478,17.6161234 C22.6989723,17.4507625 22.7913155,17.2265697 22.7907008,16.9930233 L22.7907008,3.19302326 C22.7843354,2.71207347 22.3926198,2.32553931 21.9116279,2.3255814 L20.1767442,2.3255814 L20.1767442,0.586046512 C20.1779842,0.431046579 20.1172781,0.281968698 20.0081106,0.171927887 C19.8989432,0.0618870764 19.7503537,0 19.5953488,0 L15.9767442,0 C14.2764294,0.00326829422 12.6400957,0.648664882 11.3953488,1.80697674 C10.150602,0.648664882 8.51426829,0.00326829422 6.81395349,0 L3.19534884,0 C2.87425305,0 2.61395349,0.260299564 2.61395349,0.581395349 L2.61395349,2.3255814 L0.879069767,2.3255814 C0.398077906,2.32553931 0.0063623244,2.71207347 0,3.19302326 L0,16.9930233 C0,17.2261671 0.0926160132,17.4497619 0.257473574,17.6146194 C0.422331134,17.779477 0.645925969,17.872093 0.879069767,17.872093 Z M15.9767442,1.1627907 L19.0139535,1.1627907 L19.0139535,14.0837209 L15.9767442,14.0837209 C14.5364153,14.0846699 13.1343823,14.5476669 11.9767442,15.4046512 L11.9767442,2.86744186 C13.023749,1.78030995 14.4674167,1.1650725 15.9767442,1.1627907 Z M3.77674419,1.1627907 L6.81395349,1.1627907 C8.32259559,1.16385441 9.76616289,1.77737051 10.8139535,2.8627907 C10.8139535,2.8627907 10.8139535,2.8627907 10.8139535,2.8627907 L10.8139535,15.4046512 C9.65631535,14.5476669 8.25428235,14.0846699 6.81395349,14.0837209 L3.77674419,14.0837209 L3.77674419,1.1627907 Z M1.1627907,3.48837209 L2.61395349,3.48837209 L2.61395349,14.6744186 C2.61395349,14.9955144 2.87425305,15.255814 3.19534884,15.255814 L6.81395349,15.255814 C8.39790591,15.257616 9.90604163,15.9342894 10.9604651,17.1162791 C11.0707718,17.2398458 11.228547,17.3104965 11.394186,17.3104965 C11.5598251,17.3104965 11.7176003,17.2398458 11.827907,17.1162791 C12.8823305,15.9342894 14.3904662,15.257616 15.9744186,15.255814 L19.5953488,15.255814 C19.9164446,15.255814 20.1767442,14.9955144 20.1767442,14.6744186 L20.1767442,3.48837209 L21.627907,3.48837209 L21.627907,16.7209302 L16.1395349,16.7209302 C14.822948,16.7123205 13.5670153,17.2737165 12.6953488,18.2604651 L12.6767442,18.2813953 L12.655814,18.3023256 C12.5840124,18.3739603 12.5062088,18.4393152 12.4232558,18.4976744 L12.3534884,18.5465116 C12.2865741,18.5915696 12.2166418,18.6319749 12.144186,18.6674419 L12.1302326,18.6674419 L12.0953488,18.6837209 L12.0023256,18.7232558 C11.9452539,18.7443977 11.8870192,18.7622563 11.827907,18.7767442 L11.727907,18.8 C11.6185122,18.82309 11.5071416,18.8355511 11.3953488,18.8372093 L11.2930233,18.8372093 C11.2149039,18.8324605 11.1372021,18.8223592 11.0604651,18.8069767 C11.0116279,18.8069767 10.972093,18.7860465 10.9255814,18.772093 C10.8767432,18.7600278 10.828608,18.7452767 10.7813953,18.727907 L10.6790698,18.6837209 L10.6348837,18.6627907 C10.5641778,18.6285851 10.4958115,18.5897407 10.4302326,18.5465116 L10.3488372,18.4906977 C10.2743202,18.4342409 10.2043388,18.3720352 10.1395349,18.3046512 L10.0953488,18.2581395 C9.21991657,17.2753793 7.96729033,16.7120781 6.65116279,16.7093023 L1.1627907,16.7093023 L1.1627907,3.48837209 Z" id="Shape"></path>
            <path d="M5.42093023,4.11395349 L6.38604651,4.11395349 C7.23627134,4.11550998 8.07481629,4.31201909 8.8372093,4.68837209 C9.12214563,4.81411661 9.45556124,4.69299226 9.59334708,4.41367978 C9.73113292,4.13436731 9.62434283,3.7960879 9.35116279,3.64651163 C8.42633769,3.18885903 7.40860932,2.95014245 6.37674419,2.94883721 L5.42093023,2.94883721 C5.09983445,2.94883721 4.83953488,3.20913677 4.83953488,3.53023256 C4.83953488,3.85132834 5.09983445,4.11162791 5.42093023,4.11162791 L5.42093023,4.11395349 Z" id="Path"></path>
            <path d="M5.42093023,6.68604651 L6.38604651,6.68604651 C7.23627134,6.687603 8.07481629,6.88411211 8.8372093,7.26046512 C9.12214563,7.38620964 9.45556124,7.26508528 9.59334708,6.9857728 C9.73113292,6.70646033 9.62434283,6.36818093 9.35116279,6.21860465 C8.42633769,5.76095205 7.40860932,5.52223547 6.37674419,5.52093023 L5.42093023,5.52093023 C5.09983445,5.52093023 4.83953488,5.7812298 4.83953488,6.10232558 C4.83953488,6.42342137 5.09983445,6.68372093 5.42093023,6.68372093 L5.42093023,6.68604651 Z" id="Path"></path>
            <path d="M5.42093023,9.25813953 L6.38604651,9.25813953 C7.23627134,9.25969602 8.07481629,9.45620513 8.8372093,9.83255814 C9.12214563,9.95830266 9.45556124,9.8371783 9.59334708,9.55786583 C9.73113292,9.27855335 9.62434283,8.94027395 9.35116279,8.79069767 C8.42633769,8.33304508 7.40860932,8.09432849 6.37674419,8.09302326 L5.42093023,8.09302326 C5.09983445,8.09302326 4.83953488,8.35332282 4.83953488,8.6744186 C4.83953488,8.99551439 5.09983445,9.25581395 5.42093023,9.25581395 L5.42093023,9.25813953 Z" id="Path"></path>
            <path d="M8.8372093,12.4069767 C9.0245927,12.5095762 9.25315028,12.5011447 9.43246492,12.3850179 C9.61177956,12.2688911 9.71296285,12.0637775 9.69598678,11.8508197 C9.67901072,11.637862 9.54661022,11.4513687 9.35116279,11.3651163 C8.42636603,10.9073848 7.40861901,10.6686639 6.37674419,10.6674419 L5.42093023,10.6674419 C5.09983445,10.6674419 4.83953488,10.9277414 4.83953488,11.2488372 C4.83953488,11.569933 5.09983445,11.8302326 5.42093023,11.8302326 L6.38604651,11.8302326 C7.23645404,11.8325123 8.07500831,12.0298192 8.8372093,12.4069767 Z" id="Path"></path>
            <path d="M13.6534884,4.74883721 C13.7422673,4.74855856 13.8297935,4.72787056 13.9093023,4.68837209 C14.6752741,4.31044185 15.5179595,4.11389484 16.372093,4.11395349 L17.3372093,4.11395349 C17.6583051,4.11395349 17.9186047,3.85365392 17.9186047,3.53255814 C17.9186047,3.21146235 17.6583051,2.95115036 17.3372093,2.95115036 L16.372093,2.95115036 C15.5786452,2.94963441 14.7912292,3.08900705 14.0465116,3.3627907 C13.8215019,3.44563763 13.6010381,3.54034393 13.3860465,3.64651163 C13.1441125,3.76641317 13.0165707,4.03710191 13.0781366,4.3000051 C13.1397025,4.56290829 13.3741704,4.74883721 13.644186,4.74883721 L13.6534884,4.74883721 Z" id="Path"></path>
            <path d="M13.6534884,7.32093023 C13.7422673,7.32065158 13.8297935,7.29996358 13.9093023,7.26046512 C14.6752741,6.88253488 15.5179595,6.68598787 16.372093,6.68604651 L17.3372093,6.68604651 C17.6583051,6.68604651 17.9186047,6.42574695 17.9186047,6.10465116 C17.9186047,5.78355538 17.6583051,5.52324338 17.3372093,5.52324338 L16.372093,5.52324338 C15.5786452,5.52172743 14.7912292,5.66110007 14.0465116,5.93488372 C13.8215019,6.01773065 13.6010381,6.11243695 13.3860465,6.21860465 C13.1441125,6.33850619 13.0165707,6.60919493 13.0781366,6.87209812 C13.1397025,7.13500131 13.3741704,7.32093023 13.644186,7.32093023 L13.6534884,7.32093023 Z" id="Path"></path>
            <path d="M13.6534884,9.89302326 C13.7422673,9.89274461 13.8297935,9.8720566 13.9093023,9.83255814 C14.6752741,9.4546279 15.5179595,9.25808089 16.372093,9.25813953 L17.3372093,9.25813953 C17.6583051,9.25813953 17.9186047,8.99783997 17.9186047,8.67674419 C17.9186047,8.3556484 17.6583051,8.0953364 17.3372093,8.0953364 L16.372093,8.0953364 C15.5786452,8.09382046 14.7912292,8.23319309 14.0465116,8.50697674 C13.8215019,8.58982368 13.6010381,8.68452997 13.3860465,8.79069767 C13.1441125,8.91059922 13.0165707,9.18128796 13.0781366,9.44419115 C13.1397025,9.70709434 13.3741704,9.89302326 13.644186,9.89302326 L13.6534884,9.89302326 Z" id="Path"></path>
            <path d="M13.6534884,12.4651163 C13.7422673,12.4648376 13.8297935,12.4441496 13.9093023,12.4046512 C14.6754948,12.0276041 15.5181522,11.8318593 16.372093,11.8325581 L17.3372093,11.8325581 C17.6583051,11.8325581 17.9186047,11.5722586 17.9186047,11.2511628 C17.9186047,10.930067 17.6583051,10.6697534 17.3372093,10.6697534 L16.372093,10.6697534 C15.5786367,10.6681404 14.7912034,10.8075161 14.0465116,11.0813953 C13.8215019,11.1642423 13.6010381,11.2589486 13.3860465,11.3651163 C13.1441125,11.4850178 13.0165707,11.7557066 13.0781366,12.0186098 C13.1397025,12.2815129 13.3741704,12.4674419 13.644186,12.4674419 L13.6534884,12.4651163 Z" id="Path"></path>
        </g>
    </g>
</svg>
